public/images/icons/navbar-editor/table.svg

<svg xmlns="http://www.w3.org/2000/svg" viewBox="0 0 256 256"><path d="M0 19.7v216.6h256V19.7H0zm78.8 196.9H19.7v-39.4h59.1v39.4zm0-59.1H19.7v-39.3h59.1v39.3zm0-59H19.7V59.1h59.1v39.4zm78.7 118.1h-59v-39.4h59v39.4zm0-59.1h-59v-39.3h59v39.3zm0-59h-59V59.1h59v39.4zm78.8 118.1h-59.1v-39.4h59.1v39.4zm0-59.1h-59.1v-39.3h59.1v39.3zm0-59h-59.1V59.1h59.1v39.4z"/></svg>

<?xml version="1.0" encoding="utf-8"?>
<!-- Generator: Adobe Illustrator 22.1.0, SVG Export Plug-In . SVG Version: 6.00 Build 0)  -->
<svg version="1.1" id="レイヤー_1" xmlns="http://www.w3.org/2000/svg" xmlns:xlink="http://www.w3.org/1999/xlink" x="0px"
	 y="0px" viewBox="0 0 256 256" style="enable-background:new 0 0 256 256;" xml:space="preserve">
<title>b6699d6b-9122-4b85-ae61-4683c30e2281</title>
<g id="_x39_12fc873-1caf-48cc-bee1-63878c26c044">
	<g id="_x35_452b9a1-99b9-4b96-99e0-277846261994">
		<g id="_x37_b010d98-0333-41f1-9ffb-a168547931c0">
			<g id="_x37_f377c3e-b9e5-4697-a937-3da3cb761124">
				<path d="M0,19.7v216.6h256V19.7H0z M78.8,216.6H19.7v-39.4h59.1V216.6z M78.8,157.5H19.7v-39.3h59.1V157.5z M78.8,98.5H19.7
					V59.1h59.1V98.5z M157.5,216.6h-59v-39.4h59V216.6z M157.5,157.5h-59v-39.3h59V157.5z M157.5,98.5h-59V59.1h59V98.5z
					 M236.3,216.6h-59.1v-39.4h59.1L236.3,216.6z M236.3,157.5h-59.1v-39.3h59.1L236.3,157.5z M236.3,98.5h-59.1V59.1h59.1
					L236.3,98.5z"/>
			</g>
		</g>
	</g>
</g>
</svg>
